X:66
T:Hornpipe, A
S:John Moore's Book 2
Z:Transcribed by Edmund Spriggs 04/2021
%%VWML: Moore1-4494-p49-0
F:http://www.vwml.org/record/Moore2/4494/p49
M:C
R:Hornpipe
N:The dotted rhythm below is as shown in the manuscript.
L:1/8
K:G
B>c|d>Be>c B>Gc>A|G>FA>F G2B>c|d>Bg>f edcB|B>Ac>A GFED|
d>Be>c B>Ac>A|G>FA>F G2e>c|B>Ac>A G>FA>F|G2 G>GG2:|
|:B>c|d>Bg>f edcB|e>def g2g>f|edcB AGFE|D2d>d d2A>F|
D>FA>F G>Bd>B|c>eg>e d>Be>c|B>Ac>A G>FA>F|G2G>G G2:|

